packages/tokens/icons/link/size16Px.svg

<svg viewBox="0 0 16 16" fill="none" xmlns="http://www.w3.org/2000/svg" width="1em" height="1em"><path d="M4.50012 7.49976L3.28996 8.70987C2.19097 9.80882 2.19095 11.5906 3.28992 12.6896V12.6896C4.37604 13.7757 6.13246 13.7902 7.2364 12.7222L8.5 11.4998" stroke="currentColor" stroke-linecap="round" stroke-linejoin="round"/><path d="M7.5 4.5L8.71484 3.32311C9.81874 2.2537 11.5764 2.26764 12.6632 3.35443V3.35443C13.7616 4.45282 13.7624 6.23341 12.665 7.33281L11.5 8.5" stroke="currentColor" stroke-linecap="round" stroke-linejoin="round"/><path d="M5.50012 10.5L10.5001 5.5" stroke="currentColor" stroke-linecap="round" stroke-linejoin="round"/></svg>

<svg xmlns="http://www.w3.org/2000/svg" fill="none" viewBox="0 0 16 16" width="1em" height="1em"><path stroke="currentColor" stroke-linecap="round" stroke-linejoin="round" d="M4.5 7.5 3.29 8.71a2.814 2.814 0 0 0 0 3.98v0a2.814 2.814 0 0 0 3.946.032L8.5 11.5m-1-7 1.215-1.177a2.814 2.814 0 0 1 3.948.031v0a2.814 2.814 0 0 1 .002 3.979L11.5 8.5m-6 2 5-5"/></svg>
